startshape ANCIENTMAP


shape ANCIENTMAP {
    WALL1 [ b 0.1 hue 34 ]
    WALL1 [ b 0.1 r 180 hue 34 ]
}

shape WALL1
rule {
    WALL1 [ y 0.95 r 1 s 0.975 ]
}

rule  {
    SQUARE  [ ]
    WALL1 [ y 0.95 r -1 s 0.975 sat 0.1 b 0.01 hue 0.1 ]
}

rule 0.09 {
    SQUARE [ ]
    WALL1 [ y 0.95 r 90 s 0.975 ]
    WALL1 [ y 0.95 r -90 s 0.975 ]
}

rule  0.005 {
    WALL1 [ y 0.97 r 90 s 1.5 ]
    WALL1 [ y 0.97 r -90 s 1.5 ]
}